X: 13451
T: Flooded Road To Glenties, The
R: reel
M: 4/4
K: Aminor
|:G|EA A2 cedB|cedB AGED|EA A2 egge|fedf e3d|
eged cedB|A3G cdef|ge e2 edcB|cedB A3:|
|:B|cA A2 gAfA|eA A2 BAGB|cA A2 gage|fedf e3d|
eged cedB|A3G cdef|ge e2 edcB|cedB A3:|

